src/assets/duotone/Code1.svg

<svg width="24" height="24" viewBox="0 0 24 24"  xmlns="http://www.w3.org/2000/svg">
<path opacity="0.4" d="M22 8V16.19C22 19.83 19.83 22 16.19 22H7.81C4.17 22 2 19.83 2 16.19V8.01L22 8Z" />
<path d="M8.99996 17.7504C8.88996 17.7504 8.76996 17.7204 8.66996 17.6704C7.89996 17.2804 7.23996 16.7004 6.75996 15.9804C6.35996 15.3804 6.35996 14.6104 6.75996 14.0104C7.23996 13.2904 7.89996 12.7104 8.66996 12.3304C9.03996 12.1404 9.48996 12.3004 9.67996 12.6704C9.86996 13.0404 9.71996 13.4904 9.33996 13.6804C8.79996 13.9504 8.33996 14.3604 8.00996 14.8604C7.94996 14.9504 7.94996 15.0704 8.00996 15.1704C8.33996 15.6704 8.79996 16.0804 9.33996 16.3504C9.70996 16.5404 9.85996 16.9904 9.67996 17.3604C9.53996 17.6004 9.26996 17.7504 8.99996 17.7504Z" />
<path d="M15.2102 17.7504C14.9302 17.7504 14.6702 17.6004 14.5402 17.3404C14.3502 16.9704 14.5002 16.5204 14.8802 16.3304C15.4202 16.0604 15.8802 15.6504 16.2102 15.1504C16.2702 15.0604 16.2702 14.9404 16.2102 14.8404C15.8802 14.3404 15.4202 13.9304 14.8802 13.6604C14.5102 13.4704 14.3602 13.0204 14.5402 12.6504C14.7302 12.2804 15.1802 12.1304 15.5502 12.3104C16.3202 12.7004 16.9802 13.2804 17.4602 14.0004C17.8602 14.6004 17.8602 15.3704 17.4602 15.9704C16.9802 16.6904 16.3202 17.2704 15.5502 17.6504C15.4302 17.7204 15.3202 17.7504 15.2102 17.7504Z" />
<path d="M22 7.81V8L2 8.01V7.81C2 4.17 4.17 2 7.81 2H16.19C19.83 2 22 4.17 22 7.81Z" />
</svg>

<?xml version="1.0" encoding="UTF-8"?>
<svg width="24" height="24" viewBox="0 0 24 24" xmlns="http://www.w3.org/2000/svg">
 <path d="M22 8V16.19C22 19.83 19.83 22 16.19 22H7.81C4.17 22 2 19.83 2 16.19V8.01L22 8Z" opacity=".4"/>
 <path d="m9 17.75c-0.11 0-0.23-0.03-0.33-0.08-0.77-0.39-1.43-0.97-1.91-1.69-0.4-0.6-0.4-1.37 0-1.97 0.48-0.72 1.14-1.3 1.91-1.68 0.37-0.19 0.82-0.03 1.01 0.34s0.04 0.82-0.34 1.01c-0.54 0.27-1 0.68-1.33 1.18-0.06 0.09-0.06 0.21 0 0.31 0.33 0.5 0.79 0.91 1.33 1.18 0.37 0.19 0.52 0.64 0.34 1.01-0.14 0.24-0.41 0.39-0.68 0.39z"/>
 <path d="m15.21 17.75c-0.28 0-0.54-0.15-0.67-0.41-0.19-0.37-0.04-0.82 0.34-1.01 0.54-0.27 1-0.68 1.33-1.18 0.06-0.09 0.06-0.21 0-0.31-0.33-0.5-0.79-0.91-1.33-1.18-0.37-0.19-0.52-0.64-0.34-1.01 0.19-0.37 0.64-0.52 1.01-0.34 0.77 0.39 1.43 0.97 1.91 1.69 0.4 0.6 0.4 1.37 0 1.97-0.48 0.72-1.14 1.3-1.91 1.68-0.12 0.07-0.23 0.1-0.34 0.1z"/>
 <path d="M22 7.81V8L2 8.01V7.81C2 4.17 4.17 2 7.81 2H16.19C19.83 2 22 4.17 22 7.81Z"/>
</svg>
